X:8
T:Charlie Harris - aka. - Night of Fun
R:reel
D:Double Barrelled, John Skelton & Kieran O'Hare
Z:Paul Stewart Cranford (P.S.C.), <http://www.cranfordpub.com>
Q:333
M:C
K:D
AFDF EFDF|AFAd e2 dB|AFDF EFDF|[1AFAB d2 dB:|[2AFAB d2 z:|
|:A|d2 fd efdB|AFAd ~e2 dB|de (3(fed) efdB|AFAB d2 dB|
d2 fd efdB|AFAd ~e2 dB|df ~f2 afbf|afef d3 z|]
